src/assets/icon-hidden.svg

<svg xmlns="http://www.w3.org/2000/svg" width="24px" height="24px" viewBox="5 5 26 26"><g fill="none" stroke="currentColor" stroke-linecap="round" stroke-linejoin="round" transform="translate(6 6)"><path stroke-width="1.5" d="M9.51864407,18.7199461 C10.3318722,18.9078643 11.1646216,19.0018326 12,18.9999729 C18.9966102,18.9999729 24,11.9999725 24,11.9999725 C22.8905592,10.5455258 21.5912656,9.24099459 20.1355932,8.11998775 M17.4915254,6.39999451 C15.8034799,5.50252408 13.9188509,5.02206192 12,5 C5.00338983,5 0,11.9999725 0,11.9999725 C1.69038347,14.2131635 3.82193531,16.0641922 6.26440678,17.4399512 M12,16.5999545 C14.6958984,16.5999545 16.8813559,14.4509297 16.8813559,11.7999733 M15.4576271,8.39998666 C13.5480324,6.52222592 10.4519676,6.52222595 8.54237293,8.39998671 C6.63277822,10.2777475 6.6327782,13.3221992 8.54237288,15.19996" opacity=".65" /><line x1="24" y2="24" stroke-width="2" /></g></svg>

<svg viewBox="0 0 34 34" xmlns="http://www.w3.org/2000/svg">
<g fill="none" stroke-linecap="round" stroke-linejoin="round">
<g transform="translate(5 5)" stroke="currentColor">
<path d="m9.5186 18.72c0.81323 0.18792 1.646 0.28189 2.4814 0.28005 6.9966 0 12-7 12-7-1.1094-1.4544-2.4087-2.759-3.8644-3.88m-2.6441-1.72c-1.688-0.89747-3.5727-1.3779-5.4915-1.4-6.9966 0-12 7-12 7 1.6904 2.2132 3.8219 4.0642 6.2644 5.44m5.7356-0.84c2.6959 0 4.8814-2.149 4.8814-4.8m-1.4237-3.4c-1.9096-1.8778-5.0057-1.8778-6.9153 5e-8 -1.9096 1.8778-1.9096 4.9222-5e-8 6.8" opacity=".65" stroke-width="1.5"/>
<line x1="24" y2="24" stroke-width="2"/>
</g>
</g>
</svg>
